X:1
T:Title
%%score { ( 1 3 ) | ( 2 4 ) }
L:1/8
M:3/4
K:Eb
V:1 treble nm="Grand Piano"
V:3 treble 
V:2 bass 
V:4 bass 
V:1
 z2 z2[Q:1/4=112] [B,EG][B,FA] | [EGB]3 [EAc] [EGB]2 | [B,EG]2 [A,DF]2 [G,E]2 | [CE]3 [CE] [Ec]2 | %4
 [EB]4 [EG][FA] | [GB]3 [Ac] [GB]2 | [B,EG]2 [B,F]2 [=A,CE]2 | D6- | [DB]4 [DB][B,FA] | %9
 [B,EG]3 [CEA] [B,EG]2 | [B,DG]2 [A,DF]2 [G,E]2 | [A,CE]3 [CEA] [EAc]2 | [GB]4 [GB][GB] | %13
 [Ge]3 [GB] [EG]2 | [DB]2 [FA]2 [DF]2 | E6- |[M:2/4] E4 |[M:1/4] BB |[M:3/4] c3 A c2 | %19
 [ce]4 [Bd]c | [GB]4- [EGB]2 | [EG]6 | [DF]6 | [FA]6 | [EG]6 | [GB]4 [GB][GB] | %26
 [EAc]3 [EAc] [EAc]2 | [Ece]2 [EBd]2 [EAc]2 | [EGB]3 [EAc] [EGB]2 | [B,EG]4 [A,DF][A,DF] | %30
 [G,E]3 [G,E] [CEA]2 |[M:13/16] z/ z/ z/ z/ z/ z/ z [DB]/-[DB]-<[DB] |[M:3/4] E6- |[M:2/4] E4 |] %34
V:2
 z2 z2 E,E, | E,3 E, E,2 | E,2 B,,2 C,2 | [A,,A,]3 [A,,A,] [A,,A,]2 | [E,G,]4 [E,B,][E,B,] | %5
 [E,E]3 [E,E] [E,E]2 | E,2 D,2 C,2 | z6 | F,4 [B,,F,]D, | E,3 E, E,2 | B,,2 B,,2 C,2 | %11
 A,,3 A,, A,,2 | [E,E]4 [E,E][E,E] | [E,B,]3 [E,B,] [E,B,]2 | [B,,B,]2 [B,,B,]2 [B,,A,]2 | %15
 [E,G,]6- |[M:2/4] [E,G,]4 |[M:1/4] [E,G,E][E,G,E] |[M:3/4][K:treble] [A,E]3 [A,CE] [A,EA]2 | %19
 [A,E]4 z A | E,4 E,2 | [E,B,]6 | [B,,B,]6 | [B,,B,]6 | [E,B,]4 z2 | [E,E]4 [E,E][E,E] | %26
 A,3 A, A,2 | A,2 A,2 A,2 | E,3 E, E,2 | E,4 B,,B,, | C,3 C, A,,2 | %31
[M:13/16] z/ z/ z/ z/ z/ z/ z .F,3/2 z |[M:3/4] [E,G,]6- |[M:2/4] [E,G,]4 |] %34
V:3
 x6 | x6 | x6 | x6 | x6 | x6 | x6 | [B,F]6 | x6 | x6 | x6 | x6 | x6 | x6 | x6 | x6 |[M:2/4] x4 | %17
[M:1/4] x2 |[M:3/4] x6 | x6 | E4 z2 | x6 | x6 | x6 | z2 z2 [E,B,]2 | x6 | x6 | x6 | x6 | x6 | x6 | %31
[M:13/16] [EG].[DF]3/2 z/ z/ z/ z A,3/2 |[M:3/4] x6 |[M:2/4] x4 |] %34
V:4
 x6 | x6 | x6 | x6 | x6 | x6 | x6 | B,,6- | B,,4 z2 | x6 | x6 | x6 | x6 | x6 | x6 | x6 | %16
[M:2/4] x4 |[M:1/4] x2 |[M:3/4][K:treble] x6 | z2 z2 [A,E]2 | x6 | x6 | x6 | x6 | x6 | x6 | x6 | %27
 x6 | x6 | x6 | x6 |[M:13/16] [B,,B,].[B,,B,]3/2 z/ z B,,/-B,,-<B,, |[M:3/4] x6 |[M:2/4] x4 |] %34

